X:170
T: McBand's
S: "Johnny O'Leary of Sliabh Luachra" (#35)
Z: B.Black
L: 1/8
M: 4/4
R: reel
K: D
AG|FDAD dDAG|FDAF GBAG|FDAD BDAF|(3GFG EF GBAG|
FDAD dDAG|FDAF GBAG|FDFA BGAF|(3GFG EF GABc||
d2 dc dAFA|d2 dc dfec|d2 dc dAFA|(3GFG EF GABc|
d2 ec dAFA|d2 dc df e2|fdec dA F2|(3GFG EF GBAG||
